img/vantage/4.svg

<svg width="207" height="174" viewBox="0 0 207 174" fill="none" xmlns="http://www.w3.org/2000/svg">
<g filter="url(#filter0_f_421_50068)">
<path d="M105.028 77.9486C113.119 79.5725 112.583 82.9891 111.755 87.1144L107.325 126.787L171.546 139.676C179.637 141.3 182.725 144.261 182.403 148.488L180.22 159.364C179.316 163.864 174.895 164.927 166.729 163.678C145.49 159.416 124.252 155.153 102.508 150.789C86.3259 147.541 70.1443 144.293 53.9627 141.045C42.8378 138.813 31.7129 136.58 20.588 134.347C12.4972 132.723 9.40906 129.762 10.3123 125.262L12.4952 114.386C13.3984 109.886 17.3145 108.721 25.4053 110.345L58.78 117.043L69.5675 78.647C70.4708 74.1467 72.159 71.3516 79.7442 72.874L105.028 77.9486Z" fill="#0D0C38" fill-opacity="0.3"/>
</g>
<path d="M184.854 108.234L184.3 110.995C183.673 111.508 182.984 112.327 182.418 112.532L182.972 109.771C183.538 109.565 184.165 109.053 184.854 108.234Z" fill="#919191"/>
<path d="M182.974 109.764L182.42 112.526C181.854 112.731 181.289 112.937 180.785 112.836L181.277 110.381C181.843 110.176 182.409 109.97 182.974 109.764Z" fill="#8C8C8C"/>
<path d="M181.276 110.384L180.722 113.146C180.156 113.351 179.087 113.456 178.078 113.253L178.633 110.492C179.198 110.286 180.207 110.489 181.276 110.384Z" fill="#888888"/>
<path d="M178.632 110.49L178.078 113.251C176.504 113.254 174.426 113.156 171.906 112.65L172.46 109.889C174.538 109.987 176.554 110.392 178.632 110.49Z" fill="#848484"/>
<path d="M172.459 109.886L171.905 112.647C150.732 108.398 129.56 104.148 107.884 99.7976C91.7526 96.5599 75.6215 93.3223 59.4903 90.0847C48.4001 87.8588 37.3099 85.6329 26.2197 83.407C18.1541 81.7882 14.9949 79.2391 15.7339 75.5573L16.2881 72.7959C15.5491 76.4777 19.2124 79.128 26.7739 80.6457C37.8641 82.8716 48.9543 85.0974 60.0445 87.3233C76.1757 90.5609 92.3069 93.7986 108.438 97.0362C129.61 101.286 150.782 105.535 172.459 109.886Z" fill="#848484"/>
<path fill-rule="evenodd" clip-rule="evenodd" d="M91.4298 92.9982L27.4441 80.1559L27.326 80.7444L26.7717 80.6332C19.2102 79.1155 15.5469 76.4652 16.2859 72.7834L11.421 97.0221C11.412 97.0669 11.4036 97.1115 11.3958 97.1559L10.9296 99.4788C10.1906 103.161 13.3498 105.71 21.4154 107.329L21.9681 107.44L21.965 107.455L85.9507 120.297L134.318 130.005L167.57 136.679C167.858 136.737 168.142 136.791 168.419 136.841L168.612 136.88L168.613 136.876L168.614 136.876L168.612 136.882L169.116 136.983L169.121 136.962L169.126 136.963L169.118 136.985L169.622 137.086L169.631 137.041C169.803 137.066 169.973 137.09 170.141 137.113L170.125 137.191L170.629 137.292L170.653 137.176C171.269 137.248 171.855 137.296 172.41 137.321L172.708 137.381L172.718 137.332L172.728 137.333L172.708 137.385L173.212 137.486L173.211 137.488L173.715 137.589C173.715 137.589 174.281 137.383 174.785 137.485L174.829 137.265L174.831 137.265L174.786 137.489C174.848 137.182 175.352 137.283 175.352 137.283L175.355 137.268L175.853 137.368L175.907 137.099C176.112 137.056 176.31 137.007 176.5 136.953L176.419 137.167L176.985 136.962L177.02 136.785C177.22 136.711 177.411 136.631 177.594 136.544L177.554 136.743L177.555 136.742C178.12 136.537 178.747 136.025 179.373 135.513L179.373 135.513L179.374 135.513L179.435 135.206L179.475 135.009C179.926 134.389 180.233 133.647 180.407 132.785L185.385 107.981C185.395 107.991 185.407 108.002 185.419 108.013L185.542 107.399C185.531 107.453 185.506 107.495 185.476 107.528L185.886 105.486C185.053 109.632 180.607 110.897 173.049 109.38L139.797 102.706L91.4298 92.9982ZM175.365 137.216L175.37 137.196L175.376 137.195C175.372 137.201 175.369 137.208 175.365 137.216ZM175.362 137.235L175.378 137.194C175.488 137.177 175.597 137.159 175.703 137.139L175.356 137.265L175.362 137.235Z" fill="url(#paint0_linear_421_50068)"/>
<g style="mix-blend-mode:lighten" filter="url(#filter1_f_421_50068)">
<path d="M111.601 23.3119C119.692 24.9358 119.157 28.3524 118.329 32.4777L113.898 72.15L178.119 85.0396C186.21 86.6635 189.298 89.6241 188.976 93.8509L186.793 104.727C185.89 109.227 181.468 110.29 173.302 109.042C152.063 104.779 130.825 100.516 109.081 96.152C92.8992 92.9042 76.7176 89.6565 60.5359 86.4087C49.411 84.1759 38.2861 81.943 27.1612 79.7102C19.0704 78.0863 15.9823 75.1257 16.8856 70.6253L19.0684 59.7494C19.9717 55.2491 23.8877 54.0844 31.9786 55.7082L65.3533 62.4067L76.1408 24.0103C77.044 19.51 78.7323 16.7149 86.3174 18.2373L111.601 23.3119Z" fill="url(#paint1_linear_421_50068)" fill-opacity="0.6"/>
</g>
<path d="M110.66 24.2489C118.751 25.8728 119.759 29.1216 118.931 33.2469L112.957 73.087L177.178 85.9766C185.269 87.6005 188.357 90.5611 188.034 94.7879L185.851 105.664C184.948 110.164 180.526 111.227 172.36 109.979C151.122 105.716 129.884 101.453 108.139 97.089C91.9578 93.8412 75.7762 90.5935 59.5945 87.3457C48.4696 85.1129 37.3447 82.88 26.2198 80.6472C18.129 79.0233 15.0409 76.0627 15.9442 71.5623L18.127 60.6864C19.0303 56.1861 22.9463 55.0214 31.0372 56.6452L64.4118 63.3438L74.6432 23.7922C75.5464 19.2918 77.7908 17.6519 85.376 19.1743L110.66 24.2489Z" fill="url(#paint2_linear_421_50068)"/>
<defs>
<filter id="filter0_f_421_50068" x="1.26121" y="63.5566" width="190.063" height="109.506" filterUnits="userSpaceOnUse" color-interpolation-filters="sRGB">
<feFlood flood-opacity="0" result="BackgroundImageFix"/>
<feBlend mode="normal" in="SourceGraphic" in2="BackgroundImageFix" result="shape"/>
<feGaussianBlur stdDeviation="4.44947" result="effect1_foregroundBlur_421_50068"/>
</filter>
<filter id="filter1_f_421_50068" x="-0.399153" y="0.686296" width="206.53" height="125.974" filterUnits="userSpaceOnUse" color-interpolation-filters="sRGB">
<feFlood flood-opacity="0" result="BackgroundImageFix"/>
<feBlend mode="normal" in="SourceGraphic" in2="BackgroundImageFix" result="shape"/>
<feGaussianBlur stdDeviation="8.56628" result="effect1_foregroundBlur_421_50068"/>
</filter>
<linearGradient id="paint0_linear_421_50068" x1="9.13709" y1="96.4636" x2="185.631" y2="136.697" gradientUnits="userSpaceOnUse">
<stop stop-color="#75B6E9"/>
<stop offset="0.0507196" stop-color="#ABE7FE"/>
<stop offset="0.247388" stop-color="#9ADFFB"/>
<stop offset="0.833886" stop-color="#9BDFFB"/>
<stop offset="0.922004" stop-color="#C6EFFF"/>
<stop offset="0.977146" stop-color="#7EBEEC"/>
</linearGradient>
<linearGradient id="paint1_linear_421_50068" x1="189.846" y1="89.5166" x2="27.6669" y2="79.8117" gradientUnits="userSpaceOnUse">
<stop stop-color="#0497FF"/>
<stop offset="1" stop-color="#7B00FF"/>
</linearGradient>
<linearGradient id="paint2_linear_421_50068" x1="188.904" y1="90.4536" x2="26.7255" y2="80.7487" gradientUnits="userSpaceOnUse">
<stop stop-color="#E7F8FF"/>
<stop offset="1" stop-color="#C5EFFF"/>
</linearGradient>
</defs>
</svg>

<svg width="207" height="174" fill="none" xmlns="http://www.w3.org/2000/svg"><g filter="url(#a)"><path d="M105.028 77.949c8.091 1.624 7.555 5.04 6.727 9.165l-4.43 39.673 64.221 12.889c8.091 1.624 11.179 4.585 10.857 8.812l-2.183 10.876c-.904 4.5-5.325 5.563-13.491 4.314l-64.221-12.889a8305077.24 8305077.24 0 0 1-81.92-16.442c-8.09-1.624-11.179-4.585-10.276-9.085l2.183-10.876c.903-4.5 4.82-5.665 12.91-4.041l33.375 6.698 10.787-38.396c.904-4.5 2.592-7.295 10.177-5.773l25.284 5.075Z" fill="#0D0C38" fill-opacity=".3"/></g><path d="m184.854 108.234-.554 2.761c-.627.513-1.316 1.332-1.882 1.537l.554-2.761c.566-.206 1.193-.718 1.882-1.537Z" fill="#919191"/><path d="m182.974 109.764-.554 2.762c-.566.205-1.131.411-1.635.31l.492-2.455 1.697-.617Z" fill="#8C8C8C"/><path d="m181.276 110.384-.554 2.762c-.566.205-1.635.31-2.644.107l.555-2.761c.565-.206 1.574-.003 2.643-.108Z" fill="#888"/><path d="m178.632 110.49-.554 2.761a30.53 30.53 0 0 1-6.172-.601l.554-2.761c2.078.098 4.094.503 6.172.601ZM172.459 109.886l-.554 2.761-64.021-12.85-48.394-9.712-33.27-6.678c-8.066-1.619-11.225-4.168-10.486-7.85l.554-2.761c-.739 3.682 2.924 6.332 10.486 7.85l33.27 6.677 48.394 9.713 64.021 12.85Z" fill="#848484"/><path fill-rule="evenodd" clip-rule="evenodd" d="M91.43 92.998 27.444 80.156l-.118.588-.554-.11c-7.562-1.519-11.225-4.169-10.486-7.85L11.42 97.021l-.025.134-.466 2.323c-.74 3.682 2.42 6.231 10.485 7.85l.553.111-.003.015 63.986 12.842 48.367 9.708 33.252 6.674c.288.058.572.112.849.162l.193.039.001-.004h.001l-.002.006.504.101.005-.021.005.001-.008.022.504.101.009-.045.51.072-.016.078.504.101.024-.116c.616.072 1.202.12 1.757.145l.298.06.01-.049.01.001-.02.052.504.101-.001.002.504.101s.566-.206 1.07-.104l.044-.22h.002l-.045.224c.062-.307.566-.206.566-.206l.003-.015.498.1.054-.269c.205-.043.403-.092.593-.146l-.081.214.566-.205.035-.177c.2-.074.391-.154.574-.241l-.04.199.001-.001c.565-.205 1.192-.717 1.818-1.229h.001l.061-.307.04-.197c.451-.62.758-1.362.932-2.224l4.978-24.804.034.032.123-.614a.269.269 0 0 1-.066.129l.41-2.042c-.833 4.146-5.279 5.411-12.837 3.894l-33.252-6.674-48.367-9.708Zm83.935 44.218.005-.02.006-.001-.011.021Zm-.003.019.016-.041a9.99 9.99 0 0 0 .325-.055l-.347.126.006-.03Z" fill="url(#b)"/><g style="mix-blend-mode:lighten" filter="url(#c)"><path d="M111.601 23.312c8.091 1.624 7.556 5.04 6.728 9.166l-4.431 39.672 64.221 12.89c8.091 1.623 11.179 4.584 10.857 8.81l-2.183 10.877c-.903 4.5-5.325 5.563-13.491 4.315l-64.221-12.89-48.545-9.743L27.16 79.71c-8.09-1.624-11.179-4.584-10.275-9.085l2.182-10.876c.904-4.5 4.82-5.665 12.91-4.04l33.375 6.698L76.141 24.01c.903-4.5 2.591-7.295 10.176-5.773l25.284 5.075Z" fill="url(#d)" fill-opacity=".6"/></g><path d="M110.66 24.249c8.091 1.624 9.099 4.873 8.271 8.998l-5.974 39.84 64.221 12.89c8.091 1.623 11.179 4.584 10.856 8.81l-2.183 10.877c-.903 4.5-5.325 5.563-13.491 4.315l-64.221-12.89-48.544-9.743-33.375-6.699c-8.091-1.624-11.18-4.584-10.276-9.085l2.183-10.876c.903-4.5 4.82-5.665 12.91-4.04l33.375 6.698 10.231-39.552c.903-4.5 3.148-6.14 10.733-4.618l25.284 5.075Z" fill="url(#e)"/><defs><linearGradient id="b" x1="9.137" y1="96.464" x2="185.631" y2="136.697" gradientUnits="userSpaceOnUse"><stop stop-color="#75B6E9"/><stop offset=".051" stop-color="#ABE7FE"/><stop offset=".247" stop-color="#9ADFFB"/><stop offset=".834" stop-color="#9BDFFB"/><stop offset=".922" stop-color="#C6EFFF"/><stop offset=".977" stop-color="#7EBEEC"/></linearGradient><linearGradient id="d" x1="189.846" y1="89.517" x2="27.667" y2="79.812" gradientUnits="userSpaceOnUse"><stop stop-color="#0497FF"/><stop offset="1" stop-color="#7B00FF"/></linearGradient><linearGradient id="e" x1="188.904" y1="90.454" x2="26.726" y2="80.749" gradientUnits="userSpaceOnUse"><stop stop-color="#E7F8FF"/><stop offset="1" stop-color="#C5EFFF"/></linearGradient><filter id="a" x="1.261" y="63.557" width="190.063" height="109.506" filterUnits="userSpaceOnUse" color-interpolation-filters="sRGB"><feFlood flood-opacity="0" result="BackgroundImageFix"/><feBlend in="SourceGraphic" in2="BackgroundImageFix" result="shape"/><feGaussianBlur stdDeviation="4.449" result="effect1_foregroundBlur_421_50068"/></filter><filter id="c" x="-.399" y=".686" width="206.53" height="125.974" filterUnits="userSpaceOnUse" color-interpolation-filters="sRGB"><feFlood flood-opacity="0" result="BackgroundImageFix"/><feBlend in="SourceGraphic" in2="BackgroundImageFix" result="shape"/><feGaussianBlur stdDeviation="8.566" result="effect1_foregroundBlur_421_50068"/></filter></defs></svg>
